X: 117203
T: DUNCAN DAVIDSON
Q: "Strathspey."
R:  Strathspey.
%R: strathspey
B: James Kerr "Merry Melodies" v.1 p.17 s.2 #3
Z: 2017 John Chambers <jc:trillian.mit.edu>
M: C
L: 1/8
K: D
uF |\
vD>uFvA>uB A<F A<d | vD>uF vd>uB (A<F) uE>uF |\
vD>uFvA>uB A<F A>ug | vf>vdue>uf d<d d ::\
ug |\
vf>ue (3(def) g>fe>d |
vc<A ve>uA vc>vd ue>ug |\
[1 (f<d) (3(def) g>fe>d | c>de>g f<d d :|\
[2 f<d g<e a<f b>ug | vf>vd ue>uf d<d d |]

%%sep 1 1 500
%%sep 1 1 500

